X:874
T:Mrs Campbell of Shinness
C:Roderick Campbell
S:Book, The Masters' Collection
Z:Nigel Gatherer
M:6/8
L:1/8
K:Em
BBe efg | fae g2d | BBe efg | fge d2A |
BBe efg | fae g2d | eee e2d | efe d2A :|
BGB Bed | Bgf e2d | BGB d2B | fge d2 A |
BGB Bed | Bgf efg | a2a g2f | efe d2A :|
<end>
<start>
